X: 42873
T: Wild Strawberry Hill
R: reel
M: 4/4
K: Dmajor
|FGAc cdcA|BGdB ceAG|FGAc cdcA|GAcd dAGE|
FGAc cdcA|BGdB ceAG|FAcd GBed|Addc defg||
adcg fdFA|BGdB cdeg|adcg fdFA|GAcd defg|
adcg fdFA|BGdB ceAG|FAcd GBed|Addc dAGE||

